X:1
T:The Duke of Perth
C:Trad. Ecosse, fichier ABC par Bernard Loffet
L:1/8
Q:286
M:4/4
K:G
B | [G/G,,/]A/[B/G,/]c/ d[BG,] [gE,,][BE,] d[BE,] | [gC,,][BC,] d[BC,] [aD,,][AD,] A[BG,] | \
 [G/G,,/]A/[B/G,/]c/ d[BG,] [gE,,][BE,] d[BE,] | [cA,,][AA,] [dD,,][cD,] [BG,,][GG,] G[BG,] | \
 [G/G,,/]A/[B/G,/]c/ d[BG,] [gE,,][BE,] d[BE,] | [gC,,][BC,] d[BC,] [aD,,][AD,] A[BG,] | \
 [G/G,,/]A/[B/G,/]c/ d[BG,] [gE,,][BE,] d[BE,] | [cA,,][AA,] [dD,,][cD,] [BG,,][GG,] G[fD,] | \
 [gE,,]E,/a/ g[eE,] [aA,,]A,/b/ a[fA,] | [gE,,]E,/a/ g[eE,] [bE,,][eE,] e[fE,] | [gE,,]E,/a/ g[eE,] [aA,,]A,/b/ a[fA,] | \
 [gG,,][dG,] [eC,,]C,/c/ [BG,,][GG,] G[fD,] | [gE,,]E,/a/ g[eE,] [aA,,]A,/b/ a[fA,] | \
 [gE,,]E,/a/ g[eE,] [bE,,][eE,] e[fE,] | [gE,,]E,/a/ g[eE,] [aA,,]A,/b/ a[fA,] | [gG,,][dG,] [eC,,]C,/c/ [BG,,][GG,] GG, | \
W:Created with TablEdit http://www.tabledit.com/ by Bernard Loffet
